X:458
%%etbk:tnset id:138,pos:1,rep:3x,ant:
%%etbk:wsite http://thesession.org/tunes/244
%%etbk:video src:ytube,cde:daOpMQCJJVI,desc:
%%etbk:pldat 2016-07-23T17:24,2016-04-02T14:20,2016-03-25T16:51,2016-03-23T18:13,2016-03-20T15:05,2016-03-17T17:29,2016-03-16T17:55,2015-11-20T17:39,2015-11-19T18:50,2015-11-18T17:16,2015-11-17T17:20,2015-11-15T15:23,2015-11-14T15:55,2015-11-10T18:06,2015-11-01T16:08,2015-10-31T17:27,2015-10-27T17:34,2015-10-24T16:15,2015-10-20T17:06,2015-10-17T15:00,2015-08-30T16:48,2015-08-16T15:12,2015-08-09T17:04,2015-04-04T16:13,2015-02-22T16:56,2015-02-04T17:57,2014-06-07T16:57,2014-05-23T16:53,2013-11-09T16:37,2013-11-06T17:19,2013-05-12T18:06
T: Carolan's Farewell To Music
Z: Piano Box Version by Martin Fleischmann
H: Created 2013-02-19 /  Last Modified 2013-02-19
R: slow air
M: 4/4
L: 1/8
K: Gdor
(G | "gm"!1!G2 GA !3!B2 !tenuto!B/{c}B/A/!1!G/ | "dm"!tenuto!!2!F)>(!3!G !1!A/!2!c/!3!d/!4!e/ !tenuto!!5!!2!f>g !tenuto!!4!a/4{b}a/4g/!2!f/!1!d/ | !tenuto!!3!d)>(!2!c !1!A/!2!c/d/e/ "F"!tenuto!!5!f>!3!d !tenuto!d/2{e}d/c/!tenuto!!1!A/) | !tenuto!(!3!d/{e}d/>c !1!A<!3!B "gm"!tenuto!!1!G)>(!3!B "dm"!tenuto!!2!A/4{B}A/4!1!G/!2!F/!1!D/ | 
"gm"!tenuto!!3!G2) (!1!GA !3!B2 !tenuto!B/{c}B/A/!1!G/  | !tenuto!!2!G2) !tenuto!(!3!A/G/{A}G/.!1!F/ !tenuto!!4!!3!g)>(!2!f ga/!5!b/ | "dm"!tenuto!!1!!3!d)>(d d<!5!f "C/G"!tenuto!!2!!3!c)>(c c<!4!d | "G/D"!2!!3!B)""!tenuto!(!2!A- "dm"!tenuto!A>.G A<B "gm"!tenuto!!1!G2) ||
d | "gm"!tenuto!(!3!g2-ga g/{a}g/f ga | g/{a}g/f ga gb "dm"!tenuto!!4!a/4{b}a/4g/f/d/ | !tenuto!!2!f2)- f(g fd f<g | !tenuto!!4!a/{b}a/g f<a g<b !tenuto!!4!a/4{b}a/4g/f/d/ | 
"gm"!tenuto!!3!g3) (f !tenuto!g3a | !tenuto!!3!(3gab !tenuto!(3gab "dm"!tenuto!!4!a/{b}a/>g f<d | !2!f/{g}f/e f)(g !4!a/b/!3!g/a/ !2!f/g/!2!e/f/ | !2!d/4e/4d/4e/4!2!c/4d/4c/4d/4 !2!B/4c/4B/4c/4!2!A/4B/4A/4B/4 "gm"!tenuto!!1!G)>(!3!B "dm"!tenuto!!2!A/4{B}A/4!1!G/!2!F/!1!D/ | 
"gm"!tenuto!!3!G2) (!1!GA !3!B2 !tenuto!B/{c}B/A/!1!G/  | !tenuto!!2!G2) !tenuto!(!3!A/G/{A}G/.!1!F/ !tenuto!!4!!3!g)>(!2!f ga/!5!b/ | "dm"!tenuto!!1!!3!d)>(d d<!5!f "C/G"!tenuto!!2!!3!c)>(c c<!4!d | "G/D"!2!!3!B)""!tenuto!(!2!A- "dm"!tenuto!A>.G A<B "gm"!tenuto!!1!G2)  |]


